!!!OTL: Nachtfahrt.
!!!ARE: Europa, Mitteleuropa, Deutschland
!!!SCT: A0073
!!!TXL: @@GMH
!!!YEM: Copyright 1995, estate of Helmut Schaffrath.
**kern	**text
*M4/2	*
*met(c|)	*
*clefC4	*
*k[b-]	*
*d:aeo	*
!LO:TX:a:t=äol	!
{2D	Es
=1	=1
2F	ſaß
2F	ein
2G	eul
2G	und
=2	=2
1.A}	ſpan,
{2A	es
=3	=3
2A	ſaß
2A	ein
2G	eul
2G	und
=4	=4
1F	ſpan
2r}	.
{2F	in
=5	=5
2F	ei-
2F	-nem
2A	fin-
2A	-ſtern
=6	=6
*lig	*
2E	ke-
2E	-mer-
*Xlig	*
2G}	-lein,
{2G	ſie
=7	=7
2F	ſach
2F	mich
2E	ü-
2E	-bel
=8	=8
1.D/ll}	an.
==	==
!!!GTL: Balladen und Romanzen (erzählende Volkslieder)
!!!AGN: Romanze, Ballade, Lied
!! Melodie aus Schmeltzels Quodlibet 8.
!!!ONB: ESAC (Essen Associative Code) Database: ALTDEU
!!!AMT: simple quadruple
!!!AIN: vox
!!!EED: Helmut Schaffrath
!!!EEV: 1.0
!!!RDF**kern: l = terminal long
!!!AMD: Aeolian
!!!URL-scan: https://rosdok.uni-rostock.de/mcrviewer/recordIdentifier/rosdok_ppn738218359/iview2/phys_0231.iview2?x=-425.8853427895981&y=673.8179669026285&scale=0.4823261117445838&rotation=0&layout=singlePageLayout
!!!ENC: Anna Maria Matuszewska
!!!EEV: 2024/22/02
*-	*-
